X: 560
T: Da mazi
L: 1/8
M: 2/4
K: Bb
g2d f [I:setbarnb 1]| 
g2g2 | 
c'2g b | 
f ec2 | 
c' e' c' b | 
_a2a b | 
g f e g | 
f4 |]

@@@ Tune index: 9434
